archdroid-icon-theme/Archdroid-Amber/apps/scalable/system-users-symbolic.svg

<svg fill="#bdbdbd" height="28" viewBox="0 0 44 28" width="44" xmlns="http://www.w3.org/2000/svg"><path d="m30 12c3.31 0 5.98-2.69 5.98-6s-2.67-6-5.98-6-6 2.69-6 6 2.69 6 6 6zm-16 0c3.31 0 5.98-2.69 5.98-6s-2.67-6-5.98-6-6 2.69-6 6 2.69 6 6 6zm0 4c-4.67 0-14 2.34-14 7v5h28v-5c0-4.66-9.33-7-14-7zm16 0c-.58 0-1.23.04-1.93.11 2.32 1.67 3.93 3.92 3.93 6.89v5h12v-5c0-4.66-9.33-7-14-7z" fill="#bdbdbd"/></svg>

<svg fill="#bdbdbd" height="28" version="1.1" viewBox="0 0 44 28" width="44" xmlns="http://www.w3.org/2000/svg"><path d="M30 12C33.31 12 35.98 9.31 35.98 6 35.98 2.69 33.31 0 30 0c-3.31 0-6 2.69-6 6 0 3.31 2.69 6 6 6zM14 12C17.31 12 19.98 9.31 19.98 6 19.98 2.69 17.31 0 14 0 10.69 0 8 2.69 8 6 8 9.31 10.69 12 14 12Zm0 4C9.33 16 0 18.34 0 23l0 5 28 0 0-5c0-4.66-9.33-7-14-7zm16 0c-.58 0-1.23.04-1.93.11C30.39 17.78 32 20.03 32 23l0 5 12 0 0-5c0-4.66-9.33-7-14-7z"/></svg>
